X:1
T: The Memorial Strathspey
C:
R:Strathspey
Q: 128
K:Am
M:4/4
L:1/16
|:c3B|A3E A3B c3B A3e|d3c BA3 G4 E4|A3E A3B c3B A3c|d3B cd3 e4 E4|
A3E A3B c3B A3e|d3c BA3 G4 B4|A3E c3B A3F c3B|AA3 c3d B3f e3d|
e4 a4 f3g a3f|d3c Ba3 g6 f2|e3c Bc3 e3c Ac3|B3B ((3c2B2A2) B3E e3d|
e4 a4 f3g a3f|d3c Ba3 g6 f2|e3c A3B c3A F3A|B3c de3 A4:|
